X:1
T: The Expert Dancer
C:
R:Strathspey
Q: 128
K:F
M:4/4
L:1/16
|:c2|AF3 F3A cA3 A3c|A3f df3 cf3 B3c|AF3 F3A cA3 A3c|BG3 G3A B4 -B3c|
AF3 F3A cA3 A3c|A3f df3 cf3 B3c|a3f eg3 f3c AF3|EC3 D3E F6c2|
A3f eg3 fa3 e3g|f3e df3 cf3 A3f|A3f eg3 fa3 f3A|BG3 G3A B4 -B3c|
A3f eg3 fa3 e3g|f3e df3 cf3 A3a|b3g ec3 f3e AF3|EC3 D3E F6:|
